X: 496
T: Tan qinglang
%%abc-version 2.0
%%abcx-abcm2ps-target-version 5.9.1 (29 Sep 2008)
%%abc-creator hum2abc beta
%%abcx-conversion-date 2013/10/02 07:52:30
%%abc-edited-by Helmut Schaffrath
%%humdrum-veritas 241257918
%%humdrum-veritas-data 3708783198
%%continueall 1
%%barnumbers 0
L: 1/8
M: 2/4
K: F
d2f d [I:setbarnb 1]| 
c d c A | 
c A G F | 
G4 | 
c A G F | 
G2z2 | 
A cd2 | 
d cA2 | 
c E G A | 
D4 | 
G> A G F | 
G> A G F | 
D D F D | 
C4 |]  



